icons/medical_search-1_fill.svg

<svg width="48" height="48" viewBox="0 0 48 48" fill="none" xmlns="http://www.w3.org/2000/svg">
<path d="M23 31.584C22.3875 31.8516 21.7111 32 21 32C18.2386 32 16 29.7614 16 27C16 24.2386 18.2386 22 21 22C21.7111 22 22.3875 22.1484 23 22.416V31.584Z" fill="black"/>
<path fill-rule="evenodd" clip-rule="evenodd" d="M10.0052 4.89776C10.0564 4.3935 10.4822 4 11 4H21C21.5523 4 22 4.44772 22 5V8C22 8.55228 21.5523 9 21 9H20V11.2729C20.5826 11.4788 21 12.0344 21 12.6875V18C25.9706 18 30 22.0294 30 27C30 29.125 29.2635 31.078 28.032 32.6176L30.4822 35.0679C31.1494 34.8897 31.8908 35.0624 32.4142 35.5858L37.4142 40.5858C38.1953 41.3668 38.1953 42.6332 37.4142 43.4142C36.6332 44.1953 35.3668 44.1953 34.5858 43.4142L29.5858 38.4142C29.0623 37.8907 28.8897 37.1493 29.0679 36.482L26.6178 34.0318C25.0781 35.2635 23.125 36 21 36V39C21 39.6169 20.8883 40.2077 20.684 40.7533C19.9737 42.6499 18.1445 44 16 44C13.8555 44 12.0263 42.6499 11.316 40.7533C11.1117 40.2077 11 39.6169 11 39V12.6875C11 12.0344 11.4174 11.4788 12 11.2729V9H11C10.4477 9 10 8.55228 10 8V5C10 4.96548 10.0017 4.93137 10.0052 4.89776ZM17.3702 21.0134C18.4286 20.3703 19.6711 20 21 20C24.866 20 28 23.134 28 27C28 29.7924 26.3649 32.2029 24 33.3264C23.0907 33.7583 22.0736 34 21 34C19.067 34 17.317 33.2165 16.0503 31.9497C16.0344 31.9339 16.0186 31.918 16.003 31.902L16 31.899C14.7628 30.6364 14 28.9073 14 27C14 25.0927 14.7628 23.3636 16 22.101C16.4085 21.6842 16.8687 21.3182 17.3702 21.0134ZM19 13.1021C18.4174 12.8962 18 12.3406 18 11.6875V9H14V11.6875C14 12.3406 13.5826 12.8962 13 13.1021V18H19V13.1021Z" fill="black"/>
</svg>

<svg
  xmlns="http://www.w3.org/2000/svg"
  width="24"
  height="24"
  viewBox="0 0 24 24"
  fill="none"
  stroke="currentColor"
  stroke-width="2"
  stroke-linecap="round"
  stroke-linejoin="round"
>
  <path d="M23 31.584a5 5 0 1 1 0-9.168z" />
  <path
    fill-rule="evenodd"
    d="M10.005 4.898A1 1 0 0 1 11 4h10a1 1 0 0 1 1 1v3a1 1 0 0 1-1 1h-1v2.273a1.5 1.5 0 0 1 1 1.415V18a9 9 0 0 1 7.032 14.618l2.45 2.45a2 2 0 0 1 1.932.518l5 5a2 2 0 1 1-2.828 2.828l-5-5a2 2 0 0 1-.518-1.932l-2.45-2.45A8.96 8.96 0 0 1 21 36v3a5.002 5.002 0 0 1-10 0V12.688a1.5 1.5 0 0 1 1-1.415V9h-1a1 1 0 0 1-1-1V5q0-.053.005-.102m7.365 16.115a7 7 0 1 1-1.367 10.889L16 31.899A6.98 6.98 0 0 1 14 27c0-1.907.763-3.636 2-4.899a7 7 0 0 1 1.37-1.088m1.63-7.91a1.5 1.5 0 0 1-1-1.415V9h-4v2.688a1.5 1.5 0 0 1-1 1.414V18h6z"
    clip-rule="evenodd"
  />
</svg>
